X:139
T:AIR XV. Auld lang Syne.
O:england
B:Joseph Mitchell: "The Highland Fair" (1731)
M:C|
L:1/8
K:Cmix
c2|f3g   (fg)a2 |c2A2 TG3F |f3g (f/g/a) (gf)|({f}d6)
c2|f3g   (fg)a2 |c2A2 TG3F |f3g (f/g/a) (gf)|({f}d6)||
f2|A2(GF) F2(GA)|B3A   G2A2|c3d  c2     (BA)|    f6
c2|A2(GF) F2(GA)|B3B   G3A |c3d (cdcA)      |    c6 |]


